static/images/skills/latex.svg

<svg xmlns="http://www.w3.org/2000/svg" xml:space="preserve" style="fill-rule:evenodd;clip-rule:evenodd;stroke-linejoin:round;stroke-miterlimit:2" viewBox="0 0 1200 900"><path d="M0 0h1200v900H0z" style="fill:#c4c4c4"/><path d="M29.2 63H28c-.5 5.1-1.2 11.3-10 11.3h-4c-2.3 0-2.4-.3-2.4-2V45.8c0-1.7 0-2.4 4.7-2.4h1.6v-1.5c-1.9.1-6.3.1-8.4.1-1.9 0-5.8 0-7.5-.1v1.5h1.1c3.8 0 3.9.5 3.9 2.3v26.1c0 1.8-.1 2.3-3.9 2.3H2v1.5h25.8z" style="fill-rule:nonzero" transform="translate(290.323 140.323)scale(4.83872)"/><path d="M28.3 41.8c-.2-.6-.3-.8-.9-.8s-.8.2-1 .8l-8 20.3c-.3.8-.9 2.4-4 2.4v1.2h7.7v-1.2c-1.5 0-2.5-.7-2.5-1.7 0-.2 0-.3.1-.7l1.7-4.3h9.9l2 5.1c.1.2.2.4.2.6 0 1-1.9 1-2.8 1v1.2h9.8v-1.2h-.7c-2.3 0-2.6-.3-2.9-1.3zm-1.9 3.6 4.4 11.3h-8.9z" style="fill-rule:nonzero" transform="translate(290.323 140.323)scale(4.83872)"/><path d="M68.2 42.2H37.9L37 53.3h1.2c.7-8 1.4-9.7 9-9.7.9 0 2.2 0 2.7.1 1 .2 1 .7 1 1.9v26.1c0 1.7 0 2.4-5.2 2.4h-2v1.5c2-.1 7.1-.1 9.4-.1s7.4 0 9.5.1v-1.5h-2c-5.2 0-5.2-.7-5.2-2.4v-26c0-1 0-1.7.9-1.9.5-.1 1.9-.1 2.8-.1 7.5 0 8.2 1.6 8.9 9.7h1.2z" style="fill-rule:nonzero" transform="translate(290.323 140.323)scale(4.83872)"/><path d="M94.9 74.2h-1.2c-1.2 7.6-2.4 11.3-10.9 11.3h-6.6c-2.3 0-2.4-.3-2.4-2V70.2h4.4c4.8 0 5.4 1.6 5.4 5.8h1.2V62.9h-1.2c0 4.2-.5 5.8-5.4 5.8h-4.4v-12c0-1.6.1-2 2.4-2h6.4c7.6 0 8.9 2.7 9.7 9.7h1.2l-1.4-11.2H64.2v1.5h1.1c3.8 0 3.9.5 3.9 2.3v26c0 1.8-.1 2.3-3.9 2.3h-1.1V87h28.6z" style="fill-rule:nonzero" transform="translate(290.323 140.323)scale(4.83872)"/><path d="m109.9 56.6 6.8-10c1-1.6 2.7-3.2 7.2-3.2v-1.5H112v1.5c2 0 3.1 1.1 3.1 2.3 0 .5-.1.6-.4 1.1l-5.7 8.4-6.4-9.6c-.1-.1-.3-.5-.3-.7 0-.6 1.1-1.4 3.2-1.5v-1.5c-1.7.1-5.3.1-7.2.1-1.5 0-4.6 0-6.5-.1v1.5h.9c2.7 0 3.7.3 4.6 1.7l9.1 13.8-8.1 12c-.7 1-2.2 3.3-7.2 3.3v1.5H103v-1.5c-2.3 0-3.1-1.4-3.1-2.3 0-.4.1-.6.5-1.2l7-10.4 7.9 11.9c.1.2.2.4.2.5 0 .6-1.1 1.4-3.2 1.5v1.5c1.7-.1 5.4-.1 7.2-.1 2.1 0 4.4 0 6.5.1v-1.5h-.9c-2.6 0-3.6-.2-4.7-1.8z" style="fill-rule:nonzero" transform="translate(290.323 140.323)scale(4.83872)"/></svg>

<?xml version="1.0" encoding="UTF-8" standalone="no"?>
<!DOCTYPE svg PUBLIC "-//W3C//DTD SVG 1.1//EN" "http://www.w3.org/Graphics/SVG/1.1/DTD/svg11.dtd">
<svg width="100%" height="100%" viewBox="0 0 1200 900" version="1.1" xmlns="http://www.w3.org/2000/svg" xmlns:xlink="http://www.w3.org/1999/xlink" xml:space="preserve" xmlns:serif="http://www.serif.com/" style="fill-rule:evenodd;clip-rule:evenodd;stroke-linejoin:round;stroke-miterlimit:2;">
    <rect x="0" y="0" width="1200" height="900" style="fill:rgb(196,196,196);"/>
    <g transform="matrix(4.79233,0,0,4.79233,293.291,143.291)">
        <g transform="matrix(1.00968,0,0,1.00968,-0.619355,-0.619355)">
            <path d="M29.2,63L28,63C27.5,68.1 26.8,74.3 18,74.3L14,74.3C11.7,74.3 11.6,74 11.6,72.3L11.6,45.8C11.6,44.1 11.6,43.4 16.3,43.4L17.9,43.4L17.9,41.9C16,42 11.6,42 9.5,42C7.6,42 3.7,42 2,41.9L2,43.4L3.1,43.4C6.9,43.4 7,43.9 7,45.7L7,71.8C7,73.6 6.9,74.1 3.1,74.1L2,74.1L2,75.6L27.8,75.6L29.2,63Z" style="fill-rule:nonzero;"/>
        </g>
        <g transform="matrix(1.00968,0,0,1.00968,-0.619355,-0.619355)">
            <path d="M28.3,41.8C28.1,41.2 28,41 27.4,41C26.8,41 26.6,41.2 26.4,41.8L18.4,62.1C18.1,62.9 17.5,64.5 14.4,64.5L14.4,65.7L22.1,65.7L22.1,64.5C20.6,64.5 19.6,63.8 19.6,62.8C19.6,62.6 19.6,62.5 19.7,62.1L21.4,57.8L31.3,57.8L33.3,62.9C33.4,63.1 33.5,63.3 33.5,63.5C33.5,64.5 31.6,64.5 30.7,64.5L30.7,65.7L40.5,65.7L40.5,64.5L39.8,64.5C37.5,64.5 37.2,64.2 36.9,63.2L28.3,41.8ZM26.4,45.4L30.8,56.7L21.9,56.7L26.4,45.4Z" style="fill-rule:nonzero;"/>
        </g>
        <g transform="matrix(1.00968,0,0,1.00968,-0.619355,-0.619355)">
            <path d="M68.2,42.2L37.9,42.2L37,53.3L38.2,53.3C38.9,45.3 39.6,43.6 47.2,43.6C48.1,43.6 49.4,43.6 49.9,43.7C50.9,43.9 50.9,44.4 50.9,45.6L50.9,71.7C50.9,73.4 50.9,74.1 45.7,74.1L43.7,74.1L43.7,75.6C45.7,75.5 50.8,75.5 53.1,75.5C55.4,75.5 60.5,75.5 62.6,75.6L62.6,74.1L60.6,74.1C55.4,74.1 55.4,73.4 55.4,71.7L55.4,45.7C55.4,44.7 55.4,44 56.3,43.8C56.8,43.7 58.2,43.7 59.1,43.7C66.6,43.7 67.3,45.3 68,53.4L69.2,53.4L68.2,42.2Z" style="fill-rule:nonzero;"/>
        </g>
        <g transform="matrix(1.00968,0,0,1.00968,-0.619355,-0.619355)">
            <path d="M94.9,74.2L93.7,74.2C92.5,81.8 91.3,85.5 82.8,85.5L76.2,85.5C73.9,85.5 73.8,85.2 73.8,83.5L73.8,70.2L78.2,70.2C83,70.2 83.6,71.8 83.6,76L84.8,76L84.8,62.9L83.6,62.9C83.6,67.1 83.1,68.7 78.2,68.7L73.8,68.7L73.8,56.7C73.8,55.1 73.9,54.7 76.2,54.7L82.6,54.7C90.2,54.7 91.5,57.4 92.3,64.4L93.5,64.4L92.1,53.2L64.2,53.2L64.2,54.7L65.3,54.7C69.1,54.7 69.2,55.2 69.2,57L69.2,83C69.2,84.8 69.1,85.3 65.3,85.3L64.2,85.3L64.2,87L92.8,87L94.9,74.2Z" style="fill-rule:nonzero;"/>
        </g>
        <g transform="matrix(1.00968,0,0,1.00968,-0.619355,-0.619355)">
            <path d="M109.9,56.6L116.7,46.6C117.7,45 119.4,43.4 123.9,43.4L123.9,41.9L112,41.9L112,43.4C114,43.4 115.1,44.5 115.1,45.7C115.1,46.2 115,46.3 114.7,46.8L109,55.2L102.6,45.6C102.5,45.5 102.3,45.1 102.3,44.9C102.3,44.3 103.4,43.5 105.5,43.4L105.5,41.9C103.8,42 100.2,42 98.3,42C96.8,42 93.7,42 91.8,41.9L91.8,43.4L92.7,43.4C95.4,43.4 96.4,43.7 97.3,45.1L106.4,58.9L98.3,70.9C97.6,71.9 96.1,74.2 91.1,74.2L91.1,75.7L103,75.7L103,74.2C100.7,74.2 99.9,72.8 99.9,71.9C99.9,71.5 100,71.3 100.4,70.7L107.4,60.3L115.3,72.2C115.4,72.4 115.5,72.6 115.5,72.7C115.5,73.3 114.4,74.1 112.3,74.2L112.3,75.7C114,75.6 117.7,75.6 119.5,75.6C121.6,75.6 123.9,75.6 126,75.7L126,74.2L125.1,74.2C122.5,74.2 121.5,74 120.4,72.4L109.9,56.6Z" style="fill-rule:nonzero;"/>
        </g>
    </g>
</svg>
